X: 1
T: My Home Waltz / My Own Home / My Ain Home / My Own House
N: (Old-Time)
M: 3/4
L: 1/8
K: A
ed |\
"A"c3 B A2 | A2 c2 e2 | "D"a2 g2 f2 | "E7"e4 d2 |\
"A"c3 B cB | "F#m"A2 B2 c2 | "Bm"d3 c d2 | "E7"B2 e2 d2 |
"A"c3 B A2 | A2 c2 e2 | "D"a2 g2 f2 | "E7"e4 d2 "^I"|\
"A"c3 A c2 | "G"B3 =G B2 | "A"A6- |[1 A2 :|[2 A4 |]
|: E2 |\
"A"A3 B c2 | c3 B c2 | "F#m"e3 d c2 | c4 e2 |\
"Bm"d3 c d2 | "E7"B2 c2 d2 | "A"e3 c A2 | A2 c2 e2 |
"D"f3 d f2 | a3 g f2 | "A"e2 c2 A2 | "D"a4 d2 "^I"|\
c3 A c2 | "G"B3 =G B2 | "A"A6- | A4 :|
